X: 1
T: the Pitlochry High School Centenary
C: Gordon Duncan
R: jig
Z: 2015 John Chambers <jc:trillian.mit.edu>
S: printed page in the Concord Slow Scottish Session collection binder 2
B: "Gordon Duncan't Tunes", 2007
M: 6/8
L: 1/8
K: D
|:\
d2e fed | gBB BAB | d2e fed | gBB cde |\
d2e fed | gBB BAB | AcA dAe | Aee edc :|
|:\
d2a agf | g2g gfe | d2a agf | ecA Ace |\
d2a agf | ggg g<gf | eee efd | ecA Ace :|
|:\
dAe AfA | gAf AeA | dAe AfA | gBB cde |\
dAe AfA | gAf AeA | eaa eee | gaa age :|
|:[M:9/8]\
Ada aAd ggg |[M:6/8] Adf fAd | eee cde |\
Ada aAd | ggg g<gf | eee efd | ecA Ace :|

%%sep 1 1 500

